X:366
T: ISCH DAT NIT AEN ELAENDS LAEWE
N: E1546
O: Europa, Mitteleuropa, Deutschland; Frankreich, Elsass; Schweiz
R: Staende -, Bauern - Lied, Klage
M: 4/4
L: 1/8
K: F
 | F2G2A2BA | G2AGF2C2
A3Bc2dc | B2cBA2z2
F2G2A2BA | G2AGF2C2
A3Bc2dc | B2cBA2z2
c2dcd2c2 | c2dcd2c2
c2dcd2c2 | c2dcd2c2
c3BA2F2 | G3AF2z2

